X:485
T: High King Reel
M: 4/4
L: 1/8
R: Reel
C: Sen Quinn
N: Composed circa 1963 while with the rd R (High King) cil band of Belfast
Q: 1/4=180
Z: Sen Quinn, Belfast, 2004
K: G
dcBG A2GE | DGGF GABG | dcBG A2GE | D=F ~F2 DF ~F2 |
dcBG A2GE | DGGF GABG | cBcd e2 dc | BdAc BGGB :|
dg ~g2 dgBg | dg ~g2 dBGB | c=f ~f2 cfAf | c=f~f2 dcBc |
dg ~g2 dgBg | dg ~g2 dBGB | cB cd e2 dc |1 BdAc BGGB :|\
[2 BdAc BG G2 ||
